X: 1
T:The Brolum  "CYMRU"
M:C
L:1/8
Q:80
C:Trad.
S:Reel
K:HP
f|
{gef}e2{g}ce{g}fe{g}fa|
A/2{d}A3/2{g}c/2{d}B3/2{g}ce{A}ef|
{gef}e2{g}ce{g}fe{g}fa|  !
B/2{G}B3/2{g}c/2e3/2{g}fB{G}Bf| |
{gef}e2{g}ce{g}fe{g}fa|
A/2{d}A3/2{g}c/2{d}B3/2{g}ce{A}ef|  !
{gef}ecae{g}faec|
{g}B/2{G}B3/2{g}c/2B3/2{g}A{d}A{e}A|]
e|  !
{AGAG}A2{g}c{d}A{g}cA{g}c{d}A|
{g}A/2{d}A3/2{g}c/2B3/2{g}ce{A}ef|
{AGAG}A2{g}c{d}A{g}e/2f3/2e/2c3/2|  !
{g}B/2{G}B3/2{g}c/2e3/2{g}fB{G}Ba| |
{AGAG}A2{g}c{d}A{g}cA{g}c{d}A|
{g}A/2{d}A3/2{g}c/2B3/2{g}ce{A}ef|  !
{gef}ecae{g}faec|
{g}B/2{G}B3/2{g}c/2B3/2{g}A{d}A{e}A|]
e|  !
a{g}a{g}a/2{g}a/2f{gef}e2{g}ce|
{g}A/2{d}A3/2{g}c/2{d}B3/2{g}ce{A}ef|
aA{d}ca{fg}f2e{g}c|  !
{g}B/2{G}B3/2{g}c/2e3/2{g}fB{G}Be| |
a{g}a{g}a/2{g}a/2f{gef}e2{g}ce|
{g}A/2{d}A3/2{g}c/2{d}B3/2{g}ce{A}ef|  !
{gef}ecae{g}faec|
{g}B/2{G}B3/2{g}c/2B3/2{g}A{d}A{e}A|]
e|  !
{g}A{d}A{e}A{d}c{g}A{d}A{e}A{d}c|
{g}A/2{d}A3/2{g}c/2{d}B3/2{g}ce{A}ef|
{g}A{d}A{e}A{d}c{g}A{d}A{e}A{d}c|  !
{g}B/2{G}B3/2{g}c/2e3/2{g}fB{G}Ba| |
{AGAG}A2{g}c{G}c{g}ce{g}c{d}B|
{g}A/2{d}A3/2{g}c/2{d}B3/2{g}ce{A}ef|  !
{gef}ecae{g}faec|
{g}B/2{G}B3/2{g}c/2B3/2{g}A{d}A{e}A|]
